X:1
T:Calver Lodge
M:4/4
L:1/8
S:Howe - 1000 Jigs and Reels (c. 1867)
Z:AK/Fiddler's Companion
K:G
d | g3f agfe | d^cde dedB | GedB GedB | c2A2A3d | g3f agfe | d^cde dedB |
GedB GedB | G2g2g2z || B | ABcB AGFA | GABc d3d | dcAc cBGB |
AGAB A3B | ABcB AGFA | GABc d3d | dcAc cBGB | AFGE DDEF ||

